X:1
T:La mia leggiadra
T:La mia leggiadra
T:Piero Benedetti
T:Source : Musische di Piero Benedetti---Fiorenza---Heredes di C.Marescotti---1611. Editor : André Vierendeels (15/05/15).
T:Notes : Original clefs : C1, F4 Figures in BC are notated in original print
C:Piero Benedetti
%%score 1 2
L:1/8
Q:1/4=90
M:4/4
K:F
V:1 treble nm="Soprano" snm="S"
V:2 bass nm="BC" snm="BC"
V:1
 z2 d2 d4- | d2 d/c/B/A/ B3 c | A4 A4 | z2 A2 B4- | B2 B2 c4- | c A/B/ c/d/_e/d/ d4 | c4 z2 G2 | %7
w: La mia|_ leg- * * * gia- dra|Fil- li|col pian-|* to'in per-|* le'ac- * * * * * col-|to, ba-|
 G6 G2 | GG/A/ =B/A/ A/G/ A4 | z2 d2 c2 B2 | A8 | G8 | z2 AE F2 GA | E4 E4 |z2xF F2 FG | %15
w: gna- na'i|va _ _ _ _ ghi _ fior|del suo bel|vol-|to,|quand' il mi se- no|co- re,|to l'ac- qua tros|
 A2 z c d3 A | A8 | G8 | z2 d4- dc | _e6 dc | c4 c2 d2- | d2 G2 A4 | A2 d2 B2 G2 | %23
w: vo no- vel- lo'ar-|do-|re,|O _ mi-|ra- col d'A-|mor che sot-|* to l'on-|de le sua fa-|
 B>c d>G A>B c>F | G>A B>c d3 B | A8 | G8 | z2 d4 c2 | _e6 d>c | c4 c2 d2- | d2 c/B/A/G/ A4 | %31
w: cel- * * * * * * *|* * * * le as-|con-|de,|O mi-|ra- col d'A-|mor che sot-|* to _ _ _ l'on-|
 G2 d2 B2 G2 | B/A/B/c/ B/c/d/G/ A/G/A/B/ A/B/c/F/ | G/F/_E/F/ G/A/B/c/ d3 B | A8 | G8 |] %36
w: de le sue fa-|cel- * * * * * * * * * * * * * * *|* * * * * * * * le as-|con-|de.|
V:2
 G,8 | ^F,4 G,4 |"^#" D,8 |"^#" D,8 | _E,4 E,4 | F,4 G,2 G,2 | C,8 | C,2 D,2 E,4- | %8
"^6 #" E,2 E,2 D,4 |"^#""^#""^4" D,6 D,2 |"^4""^#" D,4 D,4 |"^#" G,,8 |"^#" A,,8 | A,,8 | F,,8 | %15
 F,4 =B,,4 | D,4 D,4 | G,,8 | B,4 G,4 | _E,8 | F,8 |"^#" _E,2 E,2 D,4 |"^#" D,4 G,4 | G,4 F,4 | %24
 _E,4 B,,2 C,2 |"^b""^#""^4" D,4 D,4 |"^-natural" G,,8 | B,4 G,4 | _E,8 | F,8 | _E,4 D,4 | %31
 D,4 G,4 | G,4 F,4 |"^b" _E,4 B,,2 C,2 |"^#""^4" D,4 D,4 | G,,8 |] %36

